X:3573
T:Crossing To Ireland
R:Slow Waltz
C:Scottish Trad, Simon Fraser Collection
S:The Waltz Book
M:3/4
L:1/4
Q:120
K:G
E/F/|:"Em"G E E/D/|B, E>F|G E/F/ G|B>B A/G/|"D"F D D|
A, D D|F D D|"Bm"A>A G/F/|"Em"G E E/D/|B, E>F|G E/F/ G|
B2 A|"G"G>A B/^c/|"D"d ^c B|"B7"A G F|1 "Em" E2 E/F/:|2 "Em" E>e e/f/||
"Em"g e e|B e>B|G E E|E>b a/g/|"D"f d d|A d>A|F D D|D>a g/f/|
"Em"g e e|B e>B|G E g|"Bm"f2 e|"G"G>A B/^c/|"D"d ^c B|"B7"A G F|"Em"E2 e/f/|
"Em"gee|Bee|EGB|e/f/ g/b/ a/g/|"D"fdd|A d>A|DFA|"Bm"d/e/ f/g/ a/f/|
"Em"g>f e|"B7"f>e ^d|"Em"e>d B|"D"A>G F|"G"G>A B/^c/|"D"d ^c B|"B7"A G F|"Em"E3||


